actions/16/go-previous.svg

<svg xmlns="http://www.w3.org/2000/svg" viewBox="0 0 16 16">
  <defs id="defs3051">
    <style type="text/css" id="current-color-scheme">
      .ColorScheme-Text {
        color:#808080;
      }
      </style>
  </defs>
 <path style="fill:currentColor;fill-opacity:1;stroke:none" 
     d="m5 8l6.251-6 .749.719-4.298 4.125-1.237 1.156 1.237 1.156 4.298 4.125-.749.719-4.298-4.125z"
     class="ColorScheme-Text"
     />
</svg>

<svg xmlns="http://www.w3.org/2000/svg" version="1.1" viewBox="0 0 16 16">
 <defs>
  <style id="current-color-scheme" type="text/css">
   .ColorScheme-Text { color:#808080; }
  </style>
 </defs>
 <path class="ColorScheme-Text" d="M 5,8 11.251,2 12,2.719 7.702,6.844 6.465,8 7.702,9.156 12,13.281 11.251,14 6.953,9.875 Z" style="color:#808080;fill:currentColor"/>
</svg>
